images/bookmark.svg

<svg width="10" height="13" viewBox="0 0 10 13" fill="none" xmlns="http://www.w3.org/2000/svg">
<path d="M0.625 0H9.375C9.54076 0 9.69973 0.0663468 9.81694 0.184445C9.93415 0.302543 10 0.462718 10 0.629734V12.6847C10.0001 12.741 9.98516 12.7963 9.95681 12.8449C9.92847 12.8934 9.88773 12.9333 9.83884 12.9606C9.78995 12.9879 9.7347 13.0014 9.67884 12.9999C9.62299 12.9983 9.56856 12.9817 9.52125 12.9517L5 10.0946L0.47875 12.9511C0.43148 12.981 0.377117 12.9977 0.321314 12.9992C0.26551 13.0008 0.210304 12.9873 0.161434 12.9601C0.112565 12.9329 0.0718168 12.8931 0.0434268 12.8446C0.0150367 12.7962 4.15443e-05 12.741 0 12.6847V0.629734C0 0.462718 0.0658481 0.302543 0.183058 0.184445C0.300269 0.0663468 0.45924 0 0.625 0ZM8.75 1.25947H1.25V10.9775L5 8.6091L8.75 10.9775V1.25947Z" fill="#EC5118"/>
</svg>

<svg width="10" height="13" fill="none" xmlns="http://www.w3.org/2000/svg"><path d="M.625 0h8.75a.6226.6226 0 0 1 .442.1844.6322.6322 0 0 1 .183.4453v12.055a.3169.3169 0 0 1-.0432.1602.3138.3138 0 0 1-.118.1157.311.311 0 0 1-.3176-.0089L5 10.0946.4787 12.9511a.3102.3102 0 0 1-.3173.009.3131.3131 0 0 1-.118-.1155A.3165.3165 0 0 1 0 12.6847V.6297C0 .4627.0658.3025.183.1844A.6226.6226 0 0 1 .625 0ZM8.75 1.2595h-7.5v9.718L5 8.6091l3.75 2.3684v-9.718Z" fill="#EC5118"/></svg>
